X:724
%%etbk:tnset id:429,pos:4,rep:3x,ant:
%%etbk:wsite https://thesession.org/tunes/129
%%etbk:video src:ytube,cde:yHHZflPb41o,desc:first tune
%%etbk:video src:ytube,cde:MCfq0xpDQDc,desc:first tune
%%etbk:video src:ytube,cde:IB8qOSea7us,desc:second tune
%%etbk:pldat 2016-09-04T13:59,2016-08-04T19:15,2016-07-12T17:04,2016-06-12T15:16,2016-04-23T17:05,2016-04-18T18:55,2016-04-02T15:38,2016-03-15T17:35,2016-03-14T18:49,2016-01-27T17:18,2016-01-20T17:41,2016-01-17T14:52,2016-01-12T18:16,2016-01-02T13:44,2015-12-22T16:39,2015-12-15T17:24,2015-11-28T16:16,2015-11-25T16:43,2015-11-24T18:04,2015-10-20T17:48,2015-10-17T15:30,2015-10-14T17:11,2015-10-12T18:13,2015-10-07T17:11,2015-10-01T18:55,2015-09-30T17:19,2015-09-06T14:26,2015-08-18T17:49,2015-08-15T14:05,2015-08-14T15:18,2015-08-13T18:56,2015-08-11T17:31,2015-08-09T14:45,2015-08-04T17:37,2015-08-02T12:10,2015-08-01T17:18,2015-07-31T18:39,2015-07-29T17:55,2015-07-27T19:38,2015-07-25T15:03,2015-06-05T17:40,2015-05-10T11:55,2015-05-06T17:15,2015-05-05T16:39,2015-05-02T15:36
T: Dr. Gilbert's
Z: Piano Box Version by Martin Fleischmann
H: Created 2015-05-02 /  Last Modified 2015-05-31
R: reel
M: 4/4
L: 1/8
K: Emin
!4!gf|:!2!e!1!B !2!BB !1!AB!5!e!2!B|!4!dBA!3!c !2!BA!3!G!2!F|!1!E!2!D!1!B,D !5!GEFD|!3!E!2!D!1!B,!3!E !2!D!1!B,!1!A,!2!D|
|!1!B,!3!EEE EDB,D|!5!G!1!EEE EFG!4!A|!2!(3Bcd ed !2!B!1!dgb|afdf efgf:|
|:e~B3 g~B3|defg afdf| ggge f2af|egfd e~B3|
|afdf edB^c|dBAF AFDF|EAcA !3!B!1!dgb|afdf efgf:|


